packages/assets/static/images/icons/building-apartment.svg

<svg width="25" height="24" viewBox="0 0 25 24" xmlns="http://www.w3.org/2000/svg">
<path d="M22.125 19.125H21.75V7.125C21.75 6.82663 21.6315 6.54048 21.4205 6.3295C21.2095 6.11853 20.9234 6 20.625 6H17.25V3.75C17.25 3.45163 17.1315 3.16548 16.9205 2.9545C16.7095 2.74353 16.4234 2.625 16.125 2.625H7.125C6.82663 2.625 6.54048 2.74353 6.3295 2.9545C6.11853 3.16548 6 3.45163 6 3.75V9.375H2.625C2.32663 9.375 2.04048 9.49353 1.8295 9.7045C1.61853 9.91548 1.5 10.2016 1.5 10.5V19.125H1.125C0.826631 19.125 0.540483 19.2435 0.329505 19.4545C0.118526 19.6655 0 19.9516 0 20.25C0 20.5484 0.118526 20.8345 0.329505 21.0455C0.540483 21.2565 0.826631 21.375 1.125 21.375H22.125C22.4234 21.375 22.7095 21.2565 22.9205 21.0455C23.1315 20.8345 23.25 20.5484 23.25 20.25C23.25 19.9516 23.1315 19.6655 22.9205 19.4545C22.7095 19.2435 22.4234 19.125 22.125 19.125ZM3.75 11.625H7.125C7.42337 11.625 7.70952 11.5065 7.9205 11.2955C8.13147 11.0845 8.25 10.7984 8.25 10.5V4.875H15V7.125C15 7.42337 15.1185 7.70952 15.3295 7.9205C15.5405 8.13147 15.8266 8.25 16.125 8.25H19.5V19.125H13.5V16.5C13.5 16.4005 13.4605 16.3052 13.3902 16.2348C13.3198 16.1645 13.2245 16.125 13.125 16.125H10.125C10.0255 16.125 9.93016 16.1645 9.85983 16.2348C9.78951 16.3052 9.75 16.4005 9.75 16.5V19.125H3.75V11.625ZM9.75 7.125C9.75 6.82663 9.86853 6.54048 10.0795 6.3295C10.2905 6.11853 10.5766 6 10.875 6H12.375C12.6734 6 12.9595 6.11853 13.1705 6.3295C13.3815 6.54048 13.5 6.82663 13.5 7.125C13.5 7.42337 13.3815 7.70952 13.1705 7.9205C12.9595 8.13147 12.6734 8.25 12.375 8.25H10.875C10.5766 8.25 10.2905 8.13147 10.0795 7.9205C9.86853 7.70952 9.75 7.42337 9.75 7.125ZM9.75 10.5C9.75 10.2016 9.86853 9.91548 10.0795 9.7045C10.2905 9.49353 10.5766 9.375 10.875 9.375H12.375C12.6734 9.375 12.9595 9.49353 13.1705 9.7045C13.3815 9.91548 13.5 10.2016 13.5 10.5C13.5 10.7984 13.3815 11.0845 13.1705 11.2955C12.9595 11.5065 12.6734 11.625 12.375 11.625H10.875C10.5766 11.625 10.2905 11.5065 10.0795 11.2955C9.86853 11.0845 9.75 10.7984 9.75 10.5ZM14.625 10.5C14.625 10.2016 14.7435 9.91548 14.9545 9.7045C15.1655 9.49353 15.4516 9.375 15.75 9.375H17.25C17.5484 9.375 17.8345 9.49353 18.0455 9.7045C18.2565 9.91548 18.375 10.2016 18.375 10.5C18.375 10.7984 18.2565 11.0845 18.0455 11.2955C17.8345 11.5065 17.5484 11.625 17.25 11.625H15.75C15.4516 11.625 15.1655 11.5065 14.9545 11.2955C14.7435 11.0845 14.625 10.7984 14.625 10.5ZM8.625 13.875C8.625 14.1734 8.50647 14.4595 8.2955 14.6705C8.08452 14.8815 7.79837 15 7.5 15H6C5.70163 15 5.41548 14.8815 5.2045 14.6705C4.99353 14.4595 4.875 14.1734 4.875 13.875C4.875 13.5766 4.99353 13.2905 5.2045 13.0795C5.41548 12.8685 5.70163 12.75 6 12.75H7.5C7.79837 12.75 8.08452 12.8685 8.2955 13.0795C8.50647 13.2905 8.625 13.5766 8.625 13.875ZM9.75 13.875C9.75 13.5766 9.86853 13.2905 10.0795 13.0795C10.2905 12.8685 10.5766 12.75 10.875 12.75H12.375C12.6734 12.75 12.9595 12.8685 13.1705 13.0795C13.3815 13.2905 13.5 13.5766 13.5 13.875C13.5 14.1734 13.3815 14.4595 13.1705 14.6705C12.9595 14.8815 12.6734 15 12.375 15H10.875C10.5766 15 10.2905 14.8815 10.0795 14.6705C9.86853 14.4595 9.75 14.1734 9.75 13.875ZM14.625 13.875C14.625 13.5766 14.7435 13.2905 14.9545 13.0795C15.1655 12.8685 15.4516 12.75 15.75 12.75H17.25C17.5484 12.75 17.8345 12.8685 18.0455 13.0795C18.2565 13.2905 18.375 13.5766 18.375 13.875C18.375 14.1734 18.2565 14.4595 18.0455 14.6705C17.8345 14.8815 17.5484 15 17.25 15H15.75C15.4516 15 15.1655 14.8815 14.9545 14.6705C14.7435 14.4595 14.625 14.1734 14.625 13.875Z"/>
</svg>

<svg viewBox="0 0 25 24" xmlns="http://www.w3.org/2000/svg" aria-hidden="true" fill="currentColor" height="24px" width="24px"><path d="M22.125 19.125h-.375v-12A1.125 1.125 0 0 0 20.625 6H17.25V3.75a1.125 1.125 0 0 0-1.125-1.125h-9A1.125 1.125 0 0 0 6 3.75v5.625H2.625A1.125 1.125 0 0 0 1.5 10.5v8.625h-.375a1.125 1.125 0 1 0 0 2.25h21a1.125 1.125 0 1 0 0-2.25m-18.375-7.5h3.375A1.125 1.125 0 0 0 8.25 10.5V4.875H15v2.25a1.125 1.125 0 0 0 1.125 1.125H19.5v10.875h-6V16.5a.375.375 0 0 0-.375-.375h-3a.375.375 0 0 0-.375.375v2.625h-6zm6-4.5A1.125 1.125 0 0 1 10.875 6h1.5a1.125 1.125 0 0 1 0 2.25h-1.5A1.125 1.125 0 0 1 9.75 7.125m0 3.375a1.125 1.125 0 0 1 1.125-1.125h1.5a1.125 1.125 0 0 1 0 2.25h-1.5A1.125 1.125 0 0 1 9.75 10.5m4.875 0a1.125 1.125 0 0 1 1.125-1.125h1.5a1.125 1.125 0 0 1 0 2.25h-1.5a1.125 1.125 0 0 1-1.125-1.125m-6 3.375A1.125 1.125 0 0 1 7.5 15H6a1.125 1.125 0 1 1 0-2.25h1.5a1.125 1.125 0 0 1 1.125 1.125m1.125 0a1.125 1.125 0 0 1 1.125-1.125h1.5a1.125 1.125 0 1 1 0 2.25h-1.5a1.125 1.125 0 0 1-1.125-1.125m4.875 0a1.125 1.125 0 0 1 1.125-1.125h1.5a1.125 1.125 0 1 1 0 2.25h-1.5a1.125 1.125 0 0 1-1.125-1.125"/></svg>
